!!!COM: Palestrina, Giovanni Perluigi da
!!!OPR: Ad fugam
!!!OTL: Agnus II
**kern	**kern	**kern	**kern	**kern
*Ibass	*Itenor	*Icalto	*Icalto	*Icant
!Bassus	!Tenor	!Altus 2	!Altus 1	!Cantus
*clefF4	*clefGv2	*clefG2	*clefG2	*clefG2
*k[]	*k[]	*k[]	*k[]	*k[]
*G:mix	*G:mix	*G:mix	*G:mix	*G:mix
*M4/2	*M4/2	*M4/2	*M4/2	*M4/2
=1	=1	=1	=1	=1
1G	1r	0r	0r	0r
1A	1c	.	.	.
=2	=2	=2	=2	=2
2.G	1d	0r	1r	0r
4F	.	.	.	.
4E	2.c	.	1g	.
4D	.	.	.	.
2E	.	.	.	.
.	4B	.	.	.
=3	=3	=3	=3	=3
1F	4A	0r	1a	0r
.	4G	.	.	.
.	2A	.	.	.
1G	1B	.	2.g	.
.	.	.	4f	.
=4	=4	=4	=4	=4
2A	1c	0r	4e	0r
.	.	.	4d	.
2c	.	.	2e	.
2B-	2d	.	1f	.
2A	2f	.	.	.
=5	=5	=5	=5	=5
1G	2e	1r	2.g	0r
.	2d	.	.	.
.	.	.	4f	.
1C	1c	1g	2.e	.
.	.	.	4d	.
=6	=6	=6	=6	=6
1r	1F	1a	2c	1cc
.	.	.	1cc	.
1G	1r	2.g	.	1dd
.	.	.	2b	.
.	.	4f	.	.
=7	=7	=7	=7	=7
2.A	1c	4e	1cc	2.cc
.	.	4d	.	.
.	.	2e	.	.
4G	.	.	.	4b
2F	2.d	1f	1r	4a
.	.	.	.	4g
2D	.	.	.	2a
.	4c	.	.	.
=8	=8	=8	=8	=8
1G	2B	2.g	0r	1b
.	2G	.	.	.
.	.	4f	.	.
1C	1c	2.e	.	2.cc
.	.	4d	.	4b
=9	=9	=9	=9	=9
1c	1F	2c	0r	2.a
.	.	1cc	.	.
.	.	.	.	4g
1d	1f	.	.	2f
.	.	2b	.	[2ff
=10	=10	=10	=10	=10
1c	1g	1cc	2r	2ff]
.	.	.	2cc	2ee
2r	1f	1r	2a	1ff
2d	.	.	2a	.
=11	=11	=11	=11	=11
2B	2r	0r	1b	0r
2G	2g	.	.	.
4c	2e	.	1cc	.
4B	.	.	.	.
4A	2c	.	.	.
4G	.	.	.	.
=12	=12	=12	=12	=12
2F	4f	0r	2a	0r
.	4e	.	.	.
1G	4d	.	2.b	.
.	4c	.	.	.
.	2B	.	.	.
.	.	.	4a	.
2E	[2c	.	4g	.
.	.	.	4f	.
=13	=13	=13	=13	=13
1A	2c]	2r	1e	1r
.	2A	2cc	.	.
1D	1d	2a	1f	2r
.	.	2a	.	2ff
=14	=14	=14	=14	=14
2r	1G	1b	1g	2dd
2G	.	.	.	2dd
2c	2r	1cc	1e	1ee
2A	2c	.	.	.
=15	=15	=15	=15	=15
1d	2f	2a	1d	1ff
.	2d	2.b	.	.
1G	1g	.	1r	2dd
.	.	4a	.	.
.	.	4g	.	[2ee
.	.	4f	.	.
=16	=16	=16	=16	=16
2.A	1c	1e	0r	4ee]
.	.	.	.	4dd
.	.	.	.	4cc
4G	.	.	.	4b
2F	2.d	1f	.	1a
2D	.	.	.	.
.	4c	.	.	.
=17	=17	=17	=17	=17
1G	2B	1g	1r	1b
.	2G	.	.	.
1A	1c	1e	2r	1cc
.	.	.	2e	.
=18	=18	=18	=18	=18
2D	1d	1d	1f#	1a
1d	.	.	.	.
.	2G	1r	1g	1g
2B	[2g	.	.	.
=19	=19	=19	=19	=19
1c	2g]	0r	1e	0r
.	2e	.	.	.
1A	1f	.	2.a	.
.	.	.	4g	.
=20	=20	=20	=20	=20
1B-	1d	1r	4f	0r
.	.	.	4e	.
.	.	.	2.d	.
1A	1e	2r	.	.
.	.	.	8c	.
.	.	.	8B	.
.	.	2e	2c#	.
=21	=21	=21	=21	=21
1D	1d	1f#	0d	2r
.	.	.	.	2a
2r	1g	1g	.	1b
2G	.	.	.	.
=22	=22	=22	=22	=22
2c	2r	1e	0r	1cc
2.A	2c	.	.	.
.	2f	2.a	.	1a
4G	.	.	.	.
4F	[2d	.	.	.
4E	.	4g	.	.
=23	=23	=23	=23	=23
2D	4d]	4f	0r	2.dd
.	4c	4e	.	.
2D	4B	2.d	.	.
.	4A	.	.	4cc
1E	2G	.	.	4b
.	.	8c	.	4a
.	.	8B	.	.
.	2G	2c#	.	[2g
=24	=24	=24	=24	=24
1D	1A	0d	2r	4g]
.	.	.	.	8f
.	.	.	.	8e
.	.	.	2a	2f#
2r	1G	.	1b	[1g
2G	.	.	.	.
=25	=25	=25	=25	=25
1c	2r	0r	1cc	1g]
.	2c	.	.	.
1d	1f	.	1a	1r
=26	=26	=26	=26	=26
1G	1g	0r	1b	0r
2F	1c	.	2a	.
2E	.	.	[2g	.
=27	=27	=27	=27	=27
1D	2B	2r	4g]	1r
.	.	.	4f#	.
.	2A	2a	2f#	.
2r	1G	1b	1g	2r
2G	.	.	.	2dd
=28	=28	=28	=28	=28
1c	2r	1cc	1e	1ee
.	2c	.	.	.
1d	1f	1a	[1d	1ff
=29	=29	=29	=29	=29
1G	1g	1b	1d]	1dd
2r	1c	2a	1r	1ee
2c	.	[2g	.	.
=30	=30	=30	=30	=30
2B-	2r	4g]	0r	2dd
.	.	4f	.	.
2A	2f	2f	.	2.cc
1G	2e	1g	.	.
.	.	.	.	4b
.	2d	.	.	2b
=31	=31	=31	=31	=31
1A	1c	1e	2r	1cc
.	.	.	2e	.
2D	1d	[1d	1f#	1a
[2d	.	.	.	.
=32	=32	=32	=32	=32
2d]	2G	1d]	1g	0g
2B	1g	.	.	.
1c	.	1r	1e	.
.	2e	.	.	.
=33	=33	=33	=33	=33
1A	1f	0r	2.a	0r
.	.	.	4g	.
1B-	1d	.	4f	.
.	.	.	4e	.
.	.	.	[2d	.
=34	=34	=34	=34	=34
1A	1e	2r	4d]	1r
.	.	.	4c#	.
.	.	2e	2c#	.
2D	1d	1f#	[1d	2r
[2d	.	.	.	2a
=35	=35	=35	=35	=35
2d]	2G	1g	1d]	1b
2G	1g	.	.	.
2r	.	1e	2c	1cc
[2A	2c	.	[2e	.
=36	=36	=36	=36	=36
4A]	2r	2.a	2e]	1a
4G	.	.	.	.
4F	2.d	.	2d	.
4E	.	4g	.	.
2D	.	4f	1d	2.dd
.	4c	4e	.	.
2D	4B	[2d	.	.
.	4A	.	.	4cc
=37	=37	=37	=37	=37
1E	2G	4d]	2g	4b
.	.	4c#	.	4a
.	2G	2c#	2e	2.g
1D	1A	[1d	4f	.
.	.	.	4e	4f#
.	.	.	4d	2f#
.	.	.	4c	.
=38	=38	=38	=38	=38
1G	[0G	1d]	4B	[0g
.	.	.	4A	.
.	.	.	2B	.
1C	.	2c	2e	.
.	.	[2e	[2c	.
=39	=39	=39	=39	=39
0G	0G]	2e]	2c]	0g]
.	.	2d	4B	.
.	.	.	4A	.
.	.	1d	1B	.
==	==	==	==	==
*-	*-	*-	*-	*-
!!!CDT: 1525/^1526/-1594/2/2
!!!OCY: Italia
!!!AGN: Mass (Canonic)
!!!AST: renaissance, vocal
!!!ASW: Motet (Maffoni)
!!!PWK: Masses, Book 2
!!!RNB: Cadence finals: C
!!!YOR: Le Opere Complete, v. 4, p. 74
!!!YOO: Rome, Italy: Fratelli Scalera
!!!END: 1992//
!!!EED: John Miller
!!!YEC: Copyright 2000, John Miller
!!!YEN: United States of America
!!!YEM: Rights to all derivative electronic formats reserved.
!!!YEM: Refer to licensing agreement for further details.
!!!YEM: This file must be accompanied by the licensing agreement.
!!!YEM: A copy of the licensing agreement may be found at http://www.music-cog.ohio-state.edu/HumdrumDatabases/Palestrina/license.txt
!!!EMD: converted to Humdrum by Bret Aarden
